X:777
T:Ossian's Hall
R:Reel
C:Daniel Dow
B:The Athole Collection
M:C|
L:1/8
K:A
e|cAec fdec|B=G Bc/d/ =g2 Be|cAec fded|c>A c/d/e a2 e:|
g|aecA ce=gd|B=G Bc/d/ =g2 B^g|aecA ceae|cAec a2 ea|
ceae fdec|dB=Gd d=gBd|cedf ecdB|cA c/d/e a2 e||

